X:1
T:I’ll Live for Him
T:I’ll Live for Him
T:Charles R. Dunbar
T:Ralph E. Hudson, 1882
T:Public Domain Courtesy of the Cyber Hymnal™
C:Charles R. Dunbar
Z:Public Domain
Z:Courtesy of the Cyber Hymnal™
%%score ( 1 2 ) 3
L:1/8
Q:1/4=100
M:3/4
K:F
V:1 treble 
V:2 treble 
V:3 bass 
V:1
 C2 | [FA]>[FA] [FA]3 C | [FA]>[FA] [FA]3 C | [CF][FA] [Fc]3 F | [EG]>[FA] [EG]2 C2 | %5
w: 1.~My|life, my love I|give to Thee, Thou|Lamb of God who|died for me; O|
w: 2.~I|now be- lieve Thou|dost re- ceive, For|Thou hast died that|I might live; And|
w: 3.~O|Thou who died on|Cal- va- ry, To|save my soul and|make me free, I’ll|
 [FA]>[FA] [FA]3 [Fc] | [Fc]>[FB] [FB]2 [DG]2 | [CF][CF] [FA]3 [EG] | [CF]4 |] %9
w: may I ev- er|faith- ful be, My|Sav- ior and my|God!|
w: now hence- forth I|trust in Thee, My|Sav- ior and my|God!|
w: con- se- crate my|life to Thee, My|Sav- ior and my|God!|
V:2
 C2 | x5 C | x6 | x6 | x4 C2 | x6 | x6 | x6 | x4 |] %9
V:3
 [F,A,]2 | [F,C]>[F,C] [F,C]3 [F,A,] | [F,C]>[F,C] [F,C]3 [F,A,] | [F,A,][F,C] [F,A,]3 [A,,C] | %4
w: I’ll|live for Him who|died for me, How|hap- py then my|
 [C,C]>[C,C] [C,C]2 [E,G,]2 | [F,C]>[F,C] [F,C]3 [F,_E] | [B,,_E]>[B,,D] [B,,D]2 [B,,B,]2 | %7
w: life shall be! I’ll|live for Him who|died for me, My|
 [C,A,][C,A,] [C,C]3 [C,B,] | [F,A,]4 |] %9
w: Sav- ior and my|God!|

